X:1
T:6 Gedichte, Op.8
T:Der Spanische Zitherknabe
T:der Frau Emilie von Henning geb. Krutisch hochachtungsvoll zugeeignet
T:1. Der Spanische Zitherknabe
T:Johanna Kinkel
T:6 Gedichte, Op.8 
T:Emanuel Geibel
T:Creative Commons copyright waiver (CC0 1.0 Universal)
T:Creative Commons copyright waiver (CC0 1.0 Universal)
T:Creative Commons copyright waiver (CC0 1.0 Universal)
T:Creative Commons copyright waiver (CC0 1.0 Universal)
T:Creative Commons copyright waiver (CC0 1.0 Universal)
C:Johanna Kinkel (originally published under the name Johanna Mathieux)
Z:Emanuel Geibel
Z:Creative Commons copyright waiver (CC0 1.0 Universal)
%%score ( 1 2 )
L:1/8
Q:1/4=116
M:3/4
K:G
V:1 treble nm="Singstimme\nVoice"
V:2 treble 
V:1
"^Allegretto" z6 | z6 | z6 | z6 |: G3/2 F/ E ^D/E/ F D | (E3/2 F/) G2 z2 | %6
w: ||||Fern im Süd das * schö- ne|Spa- ni- en|
w: ||||Die- ser Ne- bel * * *||
w: ||||Ach, ich dach- te * * *||
 B3/2 A/ G A/B/"^Modern spelling:\n\"Heimatland\"\n" c/d/ c | B4 z2 | B/c/ B B/c/ B A/B/ A | %9
w: Spa- nien ist mein * Hei- * mat-|land;|wo * die schat- * ti- gen * Ka-|
w: |fernt,||
w: |Lust,||
 (G3/2 A/) B2 z2 | A/c/ F"^Modern spelling:\n\n\"atmet\"   (v.3)\n\n" G/B/ E F/A/ ^D | E4 z2 | z6 | %13
w: sta- ni- en|rau- * schen an * des E- * bro|Strand.||
w: |hab' * ich * * * * * *|||
w: |frei- * er at- * met * * *|||
 z6 | E3/2 =F/ G c"^Modern spelling:\n\"rötlich\"\n" B d | B>c G2 z2 |!mf! E3/2 =F/ G c c/B/ A/B/ | %17
w: |Wo die Man- deln röt- lich|blü- * hen,|wo die heis- se Trau- * be *|
w: |Im- mer * * * *||schleicht * * * * * * *|
w: |Wo sich * * * *||je- der * * * * * *|
 c4!f! c c | _e3"^Modern spelling:\n\"Heimat\"   (v.2)\n" _A A _B | c>_d c2 c c | =e3 d/c/ d B | %21
w: winkt, und die|Ro- sen schö- ner|glü- * hen, und das|Mond- licht * gold- ner|
w: |Hei- mat * *||Land voll * Son- nen-|
w: |Kna- be * *|||
 c4 z2 | z6 | z6 | z6 | z6 |!p! c3/2 B/ F G A G/F/ | G>F E2 z2 | c3/2 c/ c B B/A/ G | F4 z2 | %30
w: blinkt.|||||  Und nun wand'r ich mit der *|Lau- * te|trau- rig hier von Haus * zu|Haus;|
w: schein.|||||Als * * * * * *|||hielt,|
w: schlingt.|||||  Nein, * * * * * *|||rück!|
 F3/2 ^G/ F B ^A ^c | ^A>B F2 z2 | ^D F/B/ ^d e/d/ d/^c/ B/c/ | (B2 A4) | %34
w: doch kein hel- les Au- ge|schau- * te|freund- lich * noch nach * mir * her- *|aus; *|
w: ||mei- ner * * * * * * * *||
w: ||lasst mir * * * * * * * *||
 ^G3/2"^NB. Die kleinen Noten sind für die letzte Strophe.\n       \nThe small notes are for the last verse.\n" A/ ^c B c ^d | %35
w: |
w: |
w: |
 (e2 B) z z2 | B3/2 ^A/ ^G ^^F/G/ A ^D | B4 z2 | B ^c/d/ c>A F2 | A B/=c/ B>=G E2 | %40
w: |mür- risch heis- set * man mich|gehn;|ach, den * ar- * men|brau- nen * Kna- * ben|
w: |||sind * * * * *||
w: |||Dort * * * * *||
{A} c3/2 F/"^Modern spelling:\n\"Tränen\"    (v.2)\n"{G} B3/2 E/{F} A3/2 ^D/ | %41
w: mag kein Ein- zi- ger ver-|
w: * * Trä- nen * *|
w: |
"^Modern spelling\n\"sein\"       (v.3)\n" E4 z2 | z6 | z6 | z6 | z6 :| %46
w: stehn.|||||
w: rollt.|||||
w: sein.|||||
V:2
 x6 | x6 | x6 | x6 |: x6 | x6 | x6 | x6 | x6 | x6 | x6 | x6 | x6 | x6 | x6 | x6 | x6 | x6 | x6 | %19
w: |||||||||||||||||||
w: |||||||||||||||||||
w: |||||||||||||||||||
 x2 x2 z2 | e3/2 d/ c B/c/ d B | x6 | x6 | x6 | x6 | x6 | x6 | x6 | x6 | x6 | x6 | x6 | x6 | x6 | %34
w: |||||||||||||||
w: |||||||||||||||
w: |glü- hend den Fan- * dan- go||||||||||||||
 ^G3/2 F/ E ^D/E/ F D | E>F ^G x x2 | x6 | x6 | x6 | x6 | x6 | x6 | x6 | x6 | x6 | x6 :| %46
w: Spär- lich reicht man * mir die|Ga- * ben,|||||||||||
w: |schwan- * gen|||||||||||
w: |Spa- * nien,|||||||||||

